src/16/actions/zoom-out.svg

<svg xmlns="http://www.w3.org/2000/svg" viewBox="0 0 16 16"><path d="M2 2v7h1V3h10v10H7v1h7V2H2zm9.293 2L8 7.293V5H7v4h4V8H8.707L12 4.707 11.293 4zM2 10v4h4v-4H2zm1 1h2v2H3v-2z" fill="currentColor" color="#5d656b"/></svg>

<svg xmlns="http://www.w3.org/2000/svg" viewBox="0 0 16 16">
  <defs id="defs3051">
    <style type="text/css" id="current-color-scheme">
      .ColorScheme-Text {
        color:#5d656b;
      }
      </style>
  </defs>
 <path style="fill:currentColor;fill-opacity:1;stroke:none" 
       d="M 2 2 L 2 3 L 2 4 L 2 7 L 2 9 L 3 9 L 3 7 L 3 4 L 3 3 L 4 3 L 7 3 L 9 3 L 12 3 L 13 3 L 13 4 L 13 7 L 13 9 L 13 12 L 13 13 L 12 13 L 9 13 L 7 13 L 7 14 L 9 14 L 12 14 L 13 14 L 14 14 L 14 12 L 14 9 L 14 7 L 14 4 L 14 3 L 14 2 L 13 2 L 12 2 L 9 2 L 7 2 L 4 2 L 3 2 L 2 2 z M 11.292969 4 L 8 7.2929688 L 8 5 L 7 5 L 7 9 L 8 9 L 11 9 L 11 8 L 8.7070312 8 L 12 4.7070312 L 11.292969 4 z M 2 10 L 2 14 L 6 14 L 6 10 L 2 10 z M 3 11 L 5 11 L 5 13 L 3 13 L 3 11 z "
     class="ColorScheme-Text"
     />
</svg>
